!!!OTL: Gechang ningxiachuang
!!!ARE: Asia, China,ÿNingxia Yenchuan
!! I, 163, 2)
!!!SCT: C1832
!!!YEM: Copyright 1995, estate of Helmut Schaffrath.
**kern
*ICvox
*Ivox
*M2/4
*k[b-]
*F:
{8cc
8ff
8cc
8cc
=1
8b-
16a
16g
8f
8c
=2
8f
16f
16g
8cc
16cc
16ff
=3
8cc
16b-
16a
16g
16b-
16a
16g
=4
2f}
=5
{8cc
16cc
16g
8cc
16g
16f
=6
16e
16d
4c
16f
16g
=7
2c}
==
!!!AGN: Xiaodiao
!! Han
!!!ONB: ESAC (Essen Associative Code) Database: SENGANSU
!!!AMT: simple duple
!!!AIN: vox
!!!EED: Helmut Schaffrath
!!!EEV: 1.0
*-
